X: 1
T: Climbing Up the Golden Stairs
M: 2/4
Z: Transcribed to abc by Mary Lou Knack [transposed to D by John Chambers]
R: square
K: D
A4 \
|: "D"B2A2 A2G2 | F2 A4 A2 |     B2A2 A2G2 | F2 A4 A2 |\
      D2D2 D2D2 | F4  A4   | "A7"E8-       | E4  E2F2 |
  "A7"G2F2 E2D2 | C2 E4 F2 |     G2F2 E2D2 | C2 E4 E2 |\
      A2B2 A2G2 | F4  E4   |  "D"D8-       |1 D4 A2A2 :|2 D4 |]
A,4 |\
  "D"D6     F2 | A6 F2 | "A7"F2E2 E2^D2 | E8 |\
     E6     G2 | c4 B4 |  "D"B2A2 A2^G2 | A8 |
  "D"D6     F2 | A6 F2 | "A7"F2E2 E2^D2 | E4 F2G2 |\
     A2B2 A2G2 | F4 E4 |  "D"D8-        | D4 |]
